X:1
T:Pomp and Circumstance March No. 4
T:Pomp and Circumstance March No. 4
T:Piano Transcription
T:Edward Elgar
T:Arr. by Dekkadeci
C:Edward Elgar
Z:Arr. by Dekkadeci
%%score { ( 1 3 ) | ( 2 4 ) }
L:1/8
Q:1/4=112
M:2/4
K:G
V:1 treble nm="Piano" snm="Pno."
V:3 treble 
V:2 bass 
V:4 bass 
V:1
"^Allegro marziale"!f! .[GBd]z/[GBf]/ .[GBf]z/[GBe]/ | .[GBe]/.[EGB]/!tenuto![GBe]- [GBe].[GBd] | %2
 .[EGB]z/[GBe]/ .[GBe]z/[Gd]/ | .[EGc]/.[CEG]/!tenuto![EGc]- [EGc].[EGB] | %4
 .[CEG]z/[EGc]/ .[EGc]z/[EGB]/ | .[EGB]/.[CE]/!tenuto![EGB]- [EGB].[EGA] | %6
 !tenuto![G,CE]z/[CEFA]/ !tenuto![CEFA]z/[B,DG]/ | !tenuto![B,DG] z/ .A,/ .B,/.D/.G/.B/ | %8
 .[DGBd]z/[GBf]/ .[GBf]z/[GBe]/ | .[GBe]/.[EGB]/[EGBe]- [EGBe].[DGBd] | %10
 .[B,EGB]z/[GBe]/ .[GBe]z/[Gd]/ | .[EGc]/.[CEG]/[CEGc]- [CEGc].[B,EGB] | %12
 .[G,CEG]z/[EGc]/ .[EGc]z/[EGB]/ | .[EGB]/.[CE]/[CEGB]- [CEGB].[CEGA] | %14
 !>![G,CE]z/[CEFA]/ !>![CEFA]z/[B,DG]/ | [B,DG]!<(!.B,/.A,/ .G,/.A,/.B,/.^D/!<)! | %16
!ff!"^più\nforte" E z/!p! [EGd]/ !tenuto![EGd]z/[EGc]/ | .[EGB]/.[EG]/[EGB]- [EGB].B,/.^D/ | %18
!<(! E z/ [EGd]/ !tenuto![EGd]z/[EGc]/ | .[EGB]/.[EG]/[EGB]- [EGB].G/.^A,/!<)! | %20
!f! .B.[B,B]!<(!{/^A} .[B,B].[B,B] |{/A} .[B,B].[B,B]{/G} .[B,B].[B,B]!<)! | %22
!ff! (^D/F/B/^d/ [Ff])z/.[Ff]/ | (!>![F^Af]2 B) z |!p! .[EGB]z/[EGd]/ !tenuto![EGd]z/[EGc]/ | %25
 .[EGB]/.[EG]/[EGB]- [EGB].B,/.^D/ |!<(! .[EGB]z/[EGd]/ !tenuto![EGd]z/[EGc]/ | %27
 .[EGB]/.[EG]/[EGB]- [EGB].G/.^A,/!<)! |!f! .B.[B,B]!<(!{/^A} .[B,B].[B,B] | %29
{/A} .[B,B].[B,B]{/G} .[B,B].[B,B]!<)! |!ff! ([DF]/A/d/f/ [Aa])z/[Aa]/ | %31
!<(! (!>![Ada]2!<)!"_più forte"!fff! .[FAcd]) z ||!f! .[GBd]z/[GBf]/ .[GBf]z/[GBe]/ | %33
 .[GBe]/.[GB]/!>![EGBe]- [EGBe].[DGBd] | .[B,GB]z/[GBe]/ .[GBe]z/[GBd]/ | %35
 .[EGc]/.[CEG]/[CEGc]- [CEGc].[B,EGB] | .[G,EG]z/[EGc]/ .[EGc]z/[EGB]/ | %37
 .[CEB]/.[CE]/[B,CEB]- [B,CEB].[A,CEA] | [E,CE]z/[CEA]/ !>![CEA]z/G/ | %39
 [Bb]!<(!z/[Aa]/ [cc']z/[Bb]/!<)! |!ff! [dd']z/.[ff']/ (!>![f^af']>[ee']) | %41
 .[dd']/.[Bb]/[dd']- [dd'][^c^c'] | [Bfb]z/[dd']/ (!>![^c^e^c']>[^G^g]) | .[Aa]/.[Ff]/a- [da]g | %44
 [df]z/a/ (!>!a>b) | .[Aa]/.[Ff]/[Aa]- [Aa][Aa] | [Ff]z/[Aa]/ (!>![Aa]>[Bb]) | %47
 .[Aa]/.[Ff]/[Aa]- [Aa][Gg] | .[cf] !>![cc']2 !>![cc']- | [cc'] !>![cc']2 !>![cc']- | %50
 [cc']/!tenuto![Aa]/!tenuto![Ff]/!tenuto![Dd]/ !tenuto![Cc]/!tenuto![A,A]/!tenuto![F,F]/!tenuto!D/ | %51
 (^D/E/)!tenuto!^E/!tenuto!F/ !tenuto!G/!tenuto!A/!tenuto!B/!tenuto!c/ | %52
 [GBd] z/ [ff']/ (!>![f^af']>[ee']) | .[dd']/.[Bb]/[dd']- [dd'][cc'] | %54
 [Bb] z/ [DBd]/ (!>![DGBd]>[CGc]) | .[B,GB]/.[B,GB]/.[B,GB]/ z/ .[B^cgb]/.[Bceg]/.[Bcgb]/ z/ | %56
 [B,DGB]z/[DBd]/ (!>![DGBd]>[CGc]) | .[B,GB]/.[B,GB]/.[B,GB]/ z/ .[B^cgb]/.[Bceg]/.[Bcgb]/ z/ | %58
 .[B,GB]/.[B,GB]/.[B,GB]/ z/ .[B^cgb]/.[Bceg]/.[Bcgb]/ z/ | [Acea]z/[dfd']/ [dfd']z/[GBdg]/ | %60
 [GBdg].D .G z | .G,2 z2 ||{/^C} .[G,B,D]2 z2 |{/^C} .[G,B,D]2 z2 |{/^C} .[G,B,D]2 z2 | %65
 z2{/^C} .[G,B,D]2 | .[B,DG]2 z2 |!>(! z2{/^C} .[G,B,D] z | .[B,DG] z z2 | z2 G,2-!>)! || %70
[K:C][Q:1/4=112]"^Nobilmente (L'istesso tempo)"!p! G,4 | A,B, C2 | E4- | E3 z | G,3 G, | %75
!<(! A,B, CE!<)! |!mp! G4- |!>(! G3 z!>)! |!p! [CEA]2 [DG]2 | EF G2 | [A,CF]2 [B,E]2 | CD E2 | %82
 D3 C | A,B, [G,C]E |!<(! G4-!<)! |!f!!>(! G4-!>)! |!p! G z G,2 | A,B, C2 | E4- | E3 z | G,3 G, | %91
!<(! A,B, CE!<)! |!mp! G4- |!>(! G3 z!>)! |!p! !>![CEc]2 [DG]2 | EF G2 | [A,CF]2 [B,E]2 | CD E2 | %98
 F2 E2 | D2 C2 |!<(! (D3 E) | (E3!<)! A) | !>![FA]2 !>!F2 |!>(! D3 B,!>)! |!p! C4- | %105
!<(! C3 z!<)! ||!f! G4 | AB c2 | e4- | e3 z | G3 G | (AB) ce | g4- | g3 z | !>!a2 g2 | ef g2 | %116
 !>!f2 e2 | cd e2 | d3 c | AB ce |!<(! g4-!<)! |!ff!!>(! g4-!>)! |!f! g z G2 | AB c2 | e4- | e3 z | %126
 G3 G |!<(! AB ce!<)! |!ff!!>(! g4- | g3 z!>)! |!f! !>!c'2 g2 | ef g2 | !>!f2 e2 | cd [Ee]2 | %134
 f2 e2 | d2 c2 | ([Dd]3 [Ee]) | ([Ee]3 [Aa]) | !>![Adfa]2 !>![FAdf]2 | [Dd]3 [B,B] | c4- | c2 z2 || %142
[K:G]!p! .[GBd]z/[GBf]/ .[GBf]z/[GBe]/ | .[GBe]/.[EGB]/!tenuto![GBe]- [GBe].[GBd] | %144
 .[EGB]z/[GBe]/ .[GBe]z/[Gd]/ | .[EGc]/.[CEG]/!tenuto![EGc]- [EGc].[EGB] | %146
!<(! .[CEG]z/[EGc]/ .[EGc]z/[EGB]/ | .[EGB]/.[CE]/!tenuto![EGB]- [EGB].[EGA] | %148
 !tenuto![G,CE]z/[CEFA]/ !tenuto![CEFA]z/[B,DG]/ | !tenuto![B,DG]!<)!!f! z/ .A,/ .B,/.D/.G/.B/ | %150
 .[DGBd]z/[GBf]/ .[GBf]z/[GBe]/ | .[GBe]/.[EGB]/[EGBe]- [EGBe].[DGBd] | %152
 .[B,EGB]z/[GBe]/ .[GBe]z/[Gd]/ | .[EGc]/.[CEG]/[CEGc]- [CEGc].[B,EGB] | %154
 .[G,CEG]z/[EGc]/ .[EGc]z/[EGB]/ | .[EGB]/.[CE]/[CEGB]- [CEGB].[CEGA] | %156
 !>![G,CE]z/[CEFA]/ !>![CEFA]z/[B,DG]/ | [B,DG]!<(!.B,/.A,/ .G,/.A,/.B,/.^D/!<)! | %158
!ff!"^più\nforte" E z/!p! [EGd]/ !tenuto![EGd]z/[EGc]/ | .[EGB]/.[EG]/[EGB]- [EGB].B,/.^D/ | %160
!<(! E z/ [EGd]/ !tenuto![EGd]z/[EGc]/ | .[EGB]/.[EG]/[EGB]- [EGB].G/.^A,/!<)! | %162
!f! .B.[B,B]!<(!{/^A} .[B,B].[B,B] |{/A} .[B,B].[B,B]{/G} .[B,B].[B,B]!<)! | %164
!ff! (^D/F/B/^d/ [Ff])z/.[Ff]/ | (!>![F^Af]2 B) z |!p! .[EGB]z/[EGd]/ !tenuto![EGd]z/[EGc]/ | %167
 .[EGB]/.[EG]/[EGB]- [EGB].B,/.^D/ |!<(! .[EGB]z/[EGd]/ !tenuto![EGd]z/[EGc]/ | %169
 .[EGB]/.[EG]/[EGB]- [EGB].G/.^A,/!<)! |!f! .B.[B,B]!<(!{/^A} .[B,B].[B,B] | %171
{/A} .[B,B].[B,B]{/G} .[B,B].[B,B]!<)! |!ff! ([DF]/A/d/f/ [Aa])z/[Aa]/ | %173
!<(! (!>![Ada]2!<)!"_più forte"!fff! .[FAcd]) z ||!f! .[GBd]z/[GBf]/ .[GBf]z/[GBe]/ | %175
 .[GBe]/.[GB]/!>![EGBe]- [EGBe].[DGBd] | .[B,GB]z/[GBe]/ .[GBe]z/[GBd]/ | %177
 .[EGc]/.[CEG]/[CEGc]- [CEGc].[B,EGB] | .[G,EG]z/[EGc]/ .[EGc]z/[EGB]/ | %179
 .[CEB]/.[CE]/[B,CEB]- [B,CEB].[A,CEA] | [E,CE]z/[CEA]/ !>![CEA]z/G/ | %181
 [Bb]!<(!z/[Aa]/ [cc']z/[Bb]/!<)! |!ff! [dd']z/.[ff']/ (!>![f^af']>[ee']) | %183
 .[dd']/.[Bb]/[dd']- [dd'][^c^c'] | [Bfb]z/[dd']/ (!>![^c^e^c']>[^G^g]) | .[Aa]/.[Ff]/a- [da]g | %186
 [df]z/a/ (!>!a>b) | .[Aa]/.[Ff]/[Aa]- [Aa][Aa] | [Ff]z/[Aa]/ (!>![Aa]>[Bb]) | %189
 .[Aa]/.[Ff]/[Aa]- [Aa][Gg] | .[cf] !>![cc']2 !>![cc']- | [cc'] !>![cc']2 !>![cc']- | %192
 [cc']/!tenuto![Aa]/!tenuto![Ff]/!tenuto![Dd]/ !tenuto![Cc]/!tenuto![A,A]/!tenuto![F,F]/!tenuto!D/ | %193
 (^D/E/)!tenuto!^E/!tenuto!F/ !tenuto!G/!tenuto!A/!tenuto!B/!tenuto!c/ | %194
 [GBd] z/ [ff']/ (!>![f^af']>[ee']) | .[dd']/.[Bb]/[dd']- [dd'][cc'] | %196
 [Bb] z/ [DBd]/ (!>![DGBd]>[CGc]) | .[B,GB]/.[B,GB]/.[B,GB]/ z/ .[B^cgb]/.[Bceg]/.[Bcgb]/ z/ | %198
 [B,DGB]z/[DBd]/ (!>![DGBd]>[CGc]) | .[B,GB]/.[B,GB]/.[B,GB]/ z/ .[B^cgb]/.[Bceg]/.[Bcgb]/ z/ | %200
 .[B,EGB]/.[B,EGB]/.[B,EGB]/ z/ .[B^cgb]/.[Bceg]/.[Bcgb]/ z/ | %201
 .[B,EGB]/.[B,EGB]/.[B,EGB]/ z/ .[B^cgb]/.[Bceg]/.[Bcgb]/ z/ | !>![Acea]2 !>![dad']2 | %203
 !>![CEA]2 !>![DAd]2 | .[Ad]2 z2 | .[dfd']2 z2 ||[Q:1/4=112]"^Grandioso"!ff! D4 | EF G2 | B4- | %209
 B3 z | D3 D | EF GB | d4- | d3 z | !^!e2 d2 | Bc d2 | !^!c2 B2 | GA B2 | !^!A2 G2 | EF GB | d4- | %221
 d3 z | D4 | EF G2 | B4- | B3 z | D3 D | EF GB | d4- | d3 z | !tenuto!g2 d2 | Bc d2 | %232
 !tenuto!c2 B2 |!>(! GA B2!>)! |!p!!<(! ([A,A]3 [B,B]) | ([B,B]3 [Ee])!<)! | %236
!ff! !>![Ece]2 !tenuto![CEc]2 | !tenuto![B,CGB]2 ([^CGA]/B/4^c/4d/4e/4f/4g/4) | ([Aa]3 [Bb]) | %239
 ([Bb]3 [ee']) | e'2 c'2 | [Bb]2 [Aa]2 | e'2 c'2 | [Bb]2 [Aa]2 | [ac'e']2 [ac']2 | [Bb]2 a2 | %246
 [DGBd]z/[FGBf]/ [FGBf]z/[EGBe]/ | .[EGBe]/.[B,GB]/[Ee]- [Ee].[DGd] | %248
 [Geg]z/[cegc']/ [cegc']z/[Bceb]/ | .[Bceb]/.[Ece]/[Bc-e-b-]"_like a\ncymbal" [Bceb][Acfa] | %250
!fff! [dgbd']z/[fbf']/ [fbf']z/[ebe']/ | .[ebe']/.[Bb]/[ee']- [ee'][dd'] | %252
 [Geg]z/[cegc']/ [cegc']z/[Bceb]/ | .[Bceb]/.[Ece]/[Bc-e-b-]"_like a\ncymbal" [Bceb][Acfa] | %254
 .[GBdg]2 z2 | .[DGB]2 z2 | .[DGd]2 z2 | z2 .[Bgb]2 | G,4- | G,4 | G,3 [G,B,G]/[G,B,G]/ | %261
 !^![B,G]2 !fermata!z2 |] %262
V:2
 .[G,B,D]z/[G,B,F]/ .[G,B,F]z/[G,B,E]/ | .[G,B,E]/.[G,B,]/.[G,,G,] .[D,,D,].[G,,G,] | %2
!8vb(! .[G,,,G,,]!8vb)! z/ [G,B,E]/ .[G,B,E]z/[G,B,D]/ | .[G,C]/.G,/.[G,,G,] .[D,,D,].[G,,G,] | %4
!8vb(! .[G,,,G,,]!8vb)! z/ [G,C]/ .[G,C]z/[G,C]/ | .[G,C]/.G,/.[G,,G,] .[D,,D,].[G,,G,] | %6
!8vb(! .[G,,,G,,]!8vb)! z/ G,/ G,z/G,/ | G,.[G,,G,] .[D,,D,].[G,,G,] | %8
!8vb(! .[G,,,G,,]!8vb)! z/ [G,B,F]/ .[G,B,F]z/[G,B,E]/ | %9
 .[G,B,E]/.[G,B,]/.[G,,G,] .[D,,D,].[G,,G,] | %10
!8vb(! .[G,,,G,,]!8vb)! z/ [G,B,E]/ .[G,B,E]z/[G,B,D]/ | .[G,C]/.G,/.[G,,G,] .[D,,D,].[G,,G,] | %12
!8vb(! .[G,,,G,,]!8vb)! z/ [G,C]/ .[G,C]z/[G,C]/ | .[G,C]/.G,/.[G,,G,] .[D,,D,].[G,,G,] | %14
!8vb(! .[G,,,G,,]!8vb)! z/ G,/ !>!G,z/G,/ | G,.B,,/.A,,/ .G,,/.A,,/.B,,/.[^D,,^D,]/ | %16
 [E,,E,] z/ [E,G,D]/ !tenuto![E,G,D]z/[E,G,C]/ | %17
 .[E,G,B,]/.[E,G,]/.[B,,E,G,B,]/.[A,,A,]/ .[G,,G,]/.[A,,A,]/.B,,/.[^D,,^D,]/ | %18
 [E,,E,] z/ [E,G,D]/ !tenuto![E,G,D]z/[E,G,C]/ | %19
 .[E,G,B,]/.[E,G,]/.[B,,E,G,B,]/.[G,,G,]/ .[E,,E,]/.[F,,F,]/.[G,,G,]/.^A,,/ | %20
 [B,,B,] z{/=A,,} [^A,,^A,] z |{/^G,,} [A,,A,] z{/F,,} [=G,,G,] z | [F,,F,] z F, z | %23
 (!>![F,^A,E]2 [B,^D]) z | .[E,,E,] z/ [E,G,D]/ !tenuto![E,G,D]z/[E,G,C]/ | %25
 .[E,G,B,]/.[E,G,]/.[B,,E,G,B,]/.[A,,A,]/ .[G,,G,]/.[A,,A,]/.B,,/.[^D,,^D,]/ | %26
 .[E,,E,] z/ [E,G,D]/ !tenuto![E,G,D]z/[E,G,C]/ | %27
 .[E,G,B,]/.[E,G,]/.[B,,E,G,B,]/.[G,,G,]/ .[E,,E,]/.[F,,F,]/.[G,,G,]/.^A,,/ | %28
 [B,,B,] z{/=A,,} [^A,,^A,] z |{/^G,,} [A,,A,] z{/F,,} [=G,,G,] z | [A,,A,] z [G,A,^CEG] z | %31
 ([D,F,A,D]/E,/4F,/4G,/4A,/4B,/4C/4) .[CD] z ||{/G,,D,} .[G,B,D]z/[G,B,F]/ .[G,B,F]z/[G,B,E]/ | %33
 .[G,B,E]/.[G,B,]/!^![G,,G,] !^![D,,D,]!^![G,,G,] | %34
!8vb(! [G,,,G,,]!8vb)! z/ [G,B,E]/ .[G,B,E]z/[G,B,D]/ | %35
 .[G,C]/.G,/!^![G,,G,] !^![D,,D,]!^![G,,G,] | %36
!8vb(! [G,,,G,,]!8vb)! z/ [E,G,C]/ .[E,G,C]z/[E,G,B,]/ | %37
 .[C,E,B,]/.[C,E,]/!^![G,,G,] !^![D,,D,]!^![G,,G,] |!8vb(! [G,,,G,,]!8vb)! z F,[E,,E,]/[F,,F,]/ | %39
 [G,,G,]/[A,,A,]/[B,,B,]/[C,C]/ [D,D]/[E,E]/[^E,^E]/[F,F]/ | [G,B,DG] z !^![F,^A,F]2 | %41
 [=F,^G,D]D- [E,=G,^A,D]^C | [D,F,B,] z !^![^C,^E,^G,^C]2 | [C,F,A,]A,- [B,,D,G,A,]G, | %44
 A,/A,/A,/ z/ [^CE]/[CE]/[CE]/ z/ | [F,A,D]/[F,A,D]/[F,A,D]/ z/ [E,G,^C]/[E,G,C]/[E,G,C]/ z/ | %46
 D2 [E,G,]2 | [D,F,]2 G,2 | [A,,D,F,] z [E,C] z | [A,CF] z A,, z | [D,,D,] z z z/ D,/4D,/4 | %51
 ([^D,A,C!courtesy!=D]/E,/)!tenuto!^E,/!tenuto!F,/ !tenuto!G,/!tenuto!A,/!tenuto!B,/!tenuto!C/ | %52
 [G,B,D] z !^![F,^A,F]2 | [=F,_A,D] z ([E,G,D]C) | [D,G,B,] z !>![^D,,^D,]2 | %55
 E, z .G,/.G,/.G,/ z/ | [D,,D,] z !>![^D,,^D,]2 | E, z .G,/.G,/.G,/ z/ | %58
 .E,/.E,/.E,/ z/ .G,/.G,/.G,/ z/ | [D,G,C]z/[D,F,A,CD]/ [D,F,A,CD]z/[G,B,D]/ | %60
 [G,,G,] z z .G,/.D,/ |!8vb(! .[G,,,G,,]2 z2 || z2 .[G,,,G,,]2 | z2 .[G,,,G,,]2!8vb)! | %64
 z2 .[D,,D,]2 | !>![=F,,=F,]4- | [F,,F,] z .[D,,D,]2 | !>![=F,,=F,]4- | [F,,F,] z [D,,D,]2 | %69
 [=F,,=F,]2 E,D, ||[K:C] .[C,E,]2 .[C,E,]2 | .[C,F,]2 .[C,F,A,]2 | .[C,E,G,C]2 .[C,E,G,C]2 | %73
 .[C,E,G,C]2 .[C,E,G,C]2 | .[C,E,]2 .[C,E,]2 | .[C,F,]2 .[C,E,G,]2 | .[D,F,B,]2 .[D,F,B,]2 | %77
 .[E,G,C]2 .[E,G,C]2 | .[A,,E,A,]2 .[B,,D,]2 | .[C,E,G,C]2 .[E,G,B,]2 | .[F,,C,F,]2 .[G,,B,,E,]2 | %81
 .[A,,E,A,]2 .[C,E,G,]2 | .[F,,F,]2 .[E,,E,]2 | .[F,,F,]2 .[E,,E,]2 | .[D,F,B,]2 .[E,G,C]2 | %85
 ([G,B,E]2 [F,G,B,D]) z | .[E,G,C]2 .[C,E,]2 | .[C,F,]2 .[C,F,A,]2 | .[C,E,G,C]2 .[C,G,C]2 | %89
 .[G,,G,]2 .[E,,E,]2 | .[C,E,]2 .[C,E,]2 | .[C,F,]2 .[C,E,G,]2 | .[D,F,B,]2 .[D,F,B,]2 | %93
 .[E,G,C]2 .[E,G,C]2 | .[A,,E,]2 .[B,,G,]2 | .[C,G,C]2 .[E,G,B,]2 | .[F,,C,]2 .[G,,E,]2 | %97
 .A,2 (A,G,) | (F,G, A,2) | (D,E, F,2) | G,2 G,2- | G,2 .G,2 | .[D,F,A,D]2 .[D,F,A,D]2 | %103
 .[G,,G,]2 .[G,,F,G,]2 | .[C,E,]2 .[C,E,G,]2 | .[G,,C,E,G,]2 .[E,,C,E,]2 || %106
 !tenuto![C,E,G,]2 !tenuto![C,E,G,]2 | !tenuto![F,,F,]2 !tenuto![F,,F,]2 | %108
 !tenuto![C,E,G,C]2 !tenuto![C,E,G,C]2 | !tenuto![G,,E,G,]2 !tenuto![E,,E,]2 | %110
 !tenuto![C,E,G,]2 !tenuto![C,E,G,]2 | !tenuto![F,A,C]2 !tenuto![E,G,C]2 | %112
 !tenuto![D,F,B,]2 !tenuto![D,F,B,]2 | !tenuto![E,G,C]2 !tenuto![E,G,C]2 | %114
 !>![A,,C,E,A,]2 !tenuto![B,,D,G,B,]2 | !tenuto![C,E,G,C]2 !tenuto![E,G,B,E]2 | %116
 !>![F,,C,F,]2 !tenuto![G,,E,G,]2 | !tenuto![A,,E,A,]2 !tenuto![C,G,C]2 | A,B, !tenuto![G,C]2 | %119
 !tenuto![F,A,C]2 !tenuto![C,E,G,C]2 | !tenuto![D,F,B,]2 !tenuto![E,G,C]2 | ([G,B,E]2 [F,B,D]2) | %122
 !tenuto![E,G,CE]2 !tenuto![C,G,]2 | !tenuto![F,,F,]2 !tenuto![F,,F,]2 | %124
 !tenuto![C,G,C]2 !tenuto![C,G,C]2 | !tenuto![G,,G,]2 !tenuto![E,,E,]2 | %126
 !tenuto![C,G,]2 !tenuto![C,G,]2 | !tenuto![F,A,C]2 !tenuto![E,G,C]2 | %128
 !tenuto![D,F,B,]2 !tenuto![D,F,B,]2 | !tenuto![E,G,C]2 !tenuto![E,G,C]2 | %130
 !>![A,,C,E,A,]2 !tenuto![B,,G,B,]2 | !tenuto![C,G,C]2 !tenuto![E,G,B,]2 | %132
 !>![F,,C,F,]2 !tenuto![G,,E,G,]2 | !tenuto![E,A,]2 A,G, | F,G, !tenuto!A,2 | %135
 !tenuto![B,,B,]2 !tenuto!F,2 | !tenuto!G,2 !>![G,_B,]2- | [G,B,]2 .[G,A,]2 | %138
 !>![D,F,A,D]2 !>![F,A,D]2 | !>![G,,G,]2 !>![G,,F,G,]2 | .[C,E,G,C]2 .[C,G,C]2 | .[C,E,G,C]2 z2 || %142
[K:G] .[G,B,D]z/[G,B,F]/ .[G,B,F]z/[G,B,E]/ | .[G,B,E]/.[G,B,]/.[G,,G,] .[D,,D,].[G,,G,] | %144
!8vb(! .[G,,,G,,]!8vb)! z/ [G,B,E]/ .[G,B,E]z/[G,B,D]/ | .[G,C]/.G,/.[G,,G,] .[D,,D,].[G,,G,] | %146
!8vb(! .[G,,,G,,]!8vb)! z/ [G,C]/ .[G,C]z/[G,C]/ | .[G,C]/.G,/.[G,,G,] .[D,,D,].[G,,G,] | %148
!8vb(! .[G,,,G,,]!8vb)! z/ G,/ G,z/G,/ | G,.[G,,G,] .[D,,D,].[G,,G,] | %150
!8vb(! .[G,,,G,,]!8vb)! z/ [G,B,F]/ .[G,B,F]z/[G,B,E]/ | %151
 .[G,B,E]/.[G,B,]/.[G,,G,] .[D,,D,].[G,,G,] | %152
!8vb(! .[G,,,G,,]!8vb)! z/ [G,B,E]/ .[G,B,E]z/[G,B,D]/ | .[G,C]/.G,/.[G,,G,] .[D,,D,].[G,,G,] | %154
!8vb(! .[G,,,G,,]!8vb)! z/ [G,C]/ .[G,C]z/[G,C]/ | .[G,C]/.G,/.[G,,G,] .[D,,D,].[G,,G,] | %156
!8vb(! .[G,,,G,,]!8vb)! z/ G,/ !>!G,z/G,/ | G,.B,,/.A,,/ .G,,/.A,,/.B,,/.[^D,,^D,]/ | %158
 [E,,E,] z/ [E,G,D]/ !tenuto![E,G,D]z/[E,G,C]/ | %159
 .[E,G,B,]/.[E,G,]/.[B,,E,G,B,]/.[A,,A,]/ .[G,,G,]/.[A,,A,]/.B,,/.[^D,,^D,]/ | %160
 [E,,E,] z/ [E,G,D]/ !tenuto![E,G,D]z/[E,G,C]/ | %161
 .[E,G,B,]/.[E,G,]/.[B,,E,G,B,]/.[G,,G,]/ .[E,,E,]/.[F,,F,]/.[G,,G,]/.^A,,/ | %162
 [B,,B,] z{/=A,,} [^A,,^A,] z |{/^G,,} [A,,A,] z{/F,,} [=G,,G,] z | [F,,F,] z F, z | %165
 (!>![F,^A,E]2 [B,^D]) z | .[E,,E,] z/ [E,G,D]/ !tenuto![E,G,D]z/[E,G,C]/ | %167
 .[E,G,B,]/.[E,G,]/.[B,,E,G,B,]/.[A,,A,]/ .[G,,G,]/.[A,,A,]/.B,,/.[^D,,^D,]/ | %168
 .[E,,E,] z/ [E,G,D]/ !tenuto![E,G,D]z/[E,G,C]/ | %169
 .[E,G,B,]/.[E,G,]/.[B,,E,G,B,]/.[G,,G,]/ .[E,,E,]/.[F,,F,]/.[G,,G,]/.^A,,/ | %170
 [B,,B,] z{/=A,,} [^A,,^A,] z |{/^G,,} [A,,A,] z{/F,,} [=G,,G,] z | [A,,A,] z [G,A,^CEG] z | %173
 ([D,F,A,D]/E,/4F,/4G,/4A,/4B,/4C/4) .[CD] z ||{/G,,D,} .[G,B,D]z/[G,B,F]/ .[G,B,F]z/[G,B,E]/ | %175
 .[G,B,E]/.[G,B,]/!^![G,,G,] !^![D,,D,]!^![G,,G,] | %176
!8vb(! [G,,,G,,]!8vb)! z/ [G,B,E]/ .[G,B,E]z/[G,B,D]/ | %177
 .[G,C]/.G,/!^![G,,G,] !^![D,,D,]!^![G,,G,] | %178
!8vb(! [G,,,G,,]!8vb)! z/ [E,G,C]/ .[E,G,C]z/[E,G,B,]/ | %179
 .[C,E,B,]/.[C,E,]/!^![G,,G,] !^![D,,D,]!^![G,,G,] |!8vb(! [G,,,G,,]!8vb)! z F,[E,,E,]/[F,,F,]/ | %181
 [G,,G,]/[A,,A,]/[B,,B,]/[C,C]/ [D,D]/[E,E]/[^E,^E]/[F,F]/ | [G,B,DG] z !^![F,^A,F]2 | %183
 [=F,^G,D]D- [E,=G,^A,D]^C | [D,F,B,] z !^![^C,^E,^G,^C]2 | [C,F,A,]A,- [B,,D,G,A,]G, | %186
 A,/A,/A,/ z/ [^CE]/[CE]/[CE]/ z/ | [F,A,D]/[F,A,D]/[F,A,D]/ z/ [E,G,^C]/[E,G,C]/[E,G,C]/ z/ | %188
 D2 [E,G,]2 | [D,F,]2 G,2 | [A,,D,F,] z [E,C] z | [A,CF] z A,, z | [D,,D,] z z z/ D,/4D,/4 | %193
 ([^D,A,C!courtesy!=D]/E,/)!tenuto!^E,/!tenuto!F,/ !tenuto!G,/!tenuto!A,/!tenuto!B,/!tenuto!C/ | %194
 [G,B,D] z !^![F,^A,F]2 | [=F,_A,D] z ([E,G,D]C) | [D,G,B,] z !>![^D,,^D,]2 | %197
 E, z .G,/.G,/.G,/ z/ | [D,,D,] z !>![^D,,^D,]2 | E, z .G,/.G,/.G,/ z/ | .G, z .G,/.G,/.G,/ z/ | %201
 .G, z .G,/.G,/.G,/ z/ | !>![G,CE]2 !>![F,CD]2 | !>![G,,C,E,]2 !>![F,,C,D,]2 | %204
 !>![F,A,CD]2 .[D,,D,]2 | .[DFA]2 .[D,,D,]2 || .[G,,G,]2 .[G,,G,]2 | .[C,,C,]2 .[C,,C,]2 | %208
 .[G,,G,]2 !>![G,,G,]2 | !>![D,,D,]2 !>![B,,,B,,]2 |!8vb(! !>![G,,,G,,]2!8vb)! .G,,2 | %211
 .[C,G,]2 .[B,,G,]2 | .[A,,A,]2 .[A,,A,]2 | .[B,,B,]2 .[B,,B,]2 | !^![E,,E,]2 .[F,,F,]2 | %215
 .[G,,G,]2 .[B,,,B,,]2 | !^![C,,C,]2 .[D,,D,]2 | .[E,,E,]2!8vb(! .[G,,,G,,]2!8vb)! | %218
 !^![A,,,A,,]2 .[B,,,B,,]2 | .[C,,C,]2 .[B,,,B,,]2 | .[A,,,A,,]2 .[B,,,B,,]2 | %221
 .[D,,D,]2 .[C,,C,]2 | !tenuto![B,,,B,,]2!8vb(! .[G,,,G,,]2!8vb)! | .[C,,C,]2 .[C,,C,]2 | %224
!8vb(! .[G,,,G,,]2!8vb)! !>![G,,G,]2 | !>![D,,D,]2 !>![B,,,B,,]2 | %226
!8vb(! !>![G,,,G,,]2!8vb)! .G,,2 | .[C,,C,]2 .[B,,,B,,]2 | .[A,,,A,,]2 .[A,,,A,,]2 | %229
 .[B,,,B,,]2 .[B,,,B,,]2 | !tenuto![E,,E,]2 .[F,,F,]2 | .[G,,G,]2 .[B,,,B,,]2 | %232
 !tenuto![C,,C,]2 .[D,,D,]2 | .[E,,E,]2 .[A,,,A,,]2 | .D,2 =F,2- | F,2 .E,2 | .[A,,E,A,]2 .C,2 | %237
 .E,2 .[A,,A,]2 | .[D,,D,]2 .[B,,,B,,]2 | .[A,,,A,,]2!8vb(! .[^G,,,^G,,]2!8vb)! | %240
 !tenuto![A,,,A,,]2 !tenuto![C,,C,]2 | [G,,G,]2 ([F,,F,]>[A,,A,]) | [A,,A,] z [C,,C,]2 | %243
 [G,,G,]2 ([F,,F,]>[A,,A,]) | [A,,A,] z [C,,C,]2 | [G,,G,]2 [F,,F,][E,,E,] | !^![D,,D,]4 | %247
 [E,,E,][F,,F,] [G,,G,][B,,B,] | [D,D]4- | [D,D]2 z2 | !^![D,,D,]3 [D,,D,] | %251
 [E,,E,][F,,F,] [G,,G,][B,,B,] | [D,D]4- | [D,D]2 z2 | !>![G,,G,]2 !>![D,,D,]2 | %255
 !>![G,,G,]2 !>![D,,D,]2 | !>![B,,B,]2 !>![G,,G,]2 | !>![G,G]2 z2 | %258
"_trem."!8vb(! !///-!G,,,2 G,,2 | !///-!G,,,2 G,,2 | !///-!G,,,2 G,,2!8vb)! | %261
 !^![G,,D,G,]2 !fermata!z2 |] %262
V:3
 x4 | x4 | x4 | x4 | x4 | x4 | x4 | x4 | x4 | x4 | x4 | x4 | x4 | x4 | x4 | x4 | x4 | x4 | x4 | %19
 x4 | x4 | x4 | x4 | x4 | x4 | x4 | x4 | x4 | x4 | x4 | x4 | x4 || x4 | x4 | x4 | x4 | x4 | x4 | %38
 x4 | x4 | x4 | ^g z [=g^a]2 | x4 | _eA- AG | F/F/F/A/ !>!A>B | x4 | x4 | x4 | .F z g z | %49
 f z [_eg] z | x4 | x4 | x4 | _a z g2 | x4 | x4 | x4 | x4 | x4 | x4 | x4 | x4 || x4 | x4 | x4 | %65
 x4 | x4 | x4 | x4 | x4 ||[K:C] x4 | x4 | x4 | x4 | x4 | x4 | x4 | x4 | x4 | x4 | x4 | x4 | %82
 A,B, G,2 | x4 | x4 | x4 | x4 | x4 | x4 | .C2 .[G,C]2 | x4 | x4 | x4 | x4 | x4 | x4 | x4 | x4 | %98
 x4 | x4 | B, z _B,2- | B,2!mp! .A,2 | x4 | C2 B,B, | x4 | x4 || .[CE]2 .[CE]2 | .[A,CF]2 .[CFA]2 | %108
 .[EGc]2 .[EG]2 | .[EGc]2 .[EG]2 | .[CE]2 .[CE]2 | .F2 .G2 | .B2 .B2 | .[Gc]2 .[Gc]2 | %114
 !>![Ace]2 .[Gd]2 | .[EGc]2 .[GB]2 | !>![FA]2 .[EB]2 | .[CEA]2 .[EGc]2 | AB .G2 | .F2 .G2 | %120
 .[GB]2 .[Gc]2 | ([GBe]2 .[GBd]2) | .[Gc]2 .[CE]2 | .[A,CF]2 .[CFA]2 | .[EGc]2 .[EG]2 | %125
 .[EGc]2 .[EG]2 | .[CE]2 .[CE]2 | .F2 .G2 | .B2 .B2 | .[Gc]2 .[Gc]2 | !>![ce]2 .[Gd]2 | %131
 .[Gc]2 .[GB]2 | !>![FAc]2 .[EB]2 | .[EA]2 AG | FG .[EA]2 | DE .[CF]2 | [GB] z !>![G_B]2- | %137
 [GB]2 .[GA]2 | x4 | [Gc]2 [F-G-B][FG] | .[EG]2 .[EG]2 | .[EG]2 z2 ||[K:G] x4 | x4 | x4 | x4 | x4 | %147
 x4 | x4 | x4 | x4 | x4 | x4 | x4 | x4 | x4 | x4 | x4 | x4 | x4 | x4 | x4 | x4 | x4 | x4 | x4 | %166
 x4 | x4 | x4 | x4 | x4 | x4 | x4 | x4 || x4 | x4 | x4 | x4 | x4 | x4 | x4 | x4 | x4 | %183
 ^g z [=g^a]2 | x4 | _eA- AG | F/F/F/A/ !>!A>B | x4 | x4 | x4 | .F z g z | f z [_eg] z | x4 | x4 | %194
 x4 | _a z g2 | x4 | x4 | x4 | x4 | x4 | x4 | x4 | x4 | x4 | x4 || .B,2 .B,2 | .[G,C]2 .[G,CE]2 | %208
 .[B,DG]2 .[B,DG]2 | .[B,DG]2 .[B,DG]2 | .[G,B,]2 .[G,B,]2 | .C2 .[B,D]2 | .[Fc]2 .[Fc]2 | %213
 .[DG]2 .[DG]2 | !^![EGB]2 .[DA]2 | .[B,DG]2 .[DF]2 | !^![CEG]2 .[B,F]2 | .[B,E]2 .[B,D]2 | %218
 !^![A,C]2 .[G,D]2 | .[G,C]2 .[G,D]2 | .[Fc]2 .[DG]2 | ([DFB]2 .[DFA]2) | .[G,B,]2 .[G,B,]2 | %223
 .[G,C]2 .[G,CE]2 | .[B,DG]2 .[B,DG]2 | .[B,DG]2 .[B,DG]2 | .[G,B,]2 .[G,B,]2 | .G,2 .[G,D]2 | %228
 .[DFc]2 .[DFc]2 | .[DG]2 .[DG]2 | !tenuto![GB]2 .[DA]2 | .[B,DG]2 .[DF]2 | !tenuto![CE]2 .[B,F]2 | %233
 .[G,B,E]2 .[^CG]2 | .[DF]2 =F2- | F2 .E2 | x4 | x4 | .d2 !>![d=f]2- | [df]2 [de] z | %240
 ez/e/ [ce]z/[ce]/ | [ce]/[ce]/[ce]- [ce][ce] | ez/e/ [ce]z/[ce]/ | [ce]/[ce]/[ce]- [ce][ce] | %244
 ez/e/ [ce]z/[ce]/ | [ce]/[ce]/[ce]- [Ace].A | x4 | x4 | x4 | x4 | x4 | x4 | x4 | x4 | x4 | x4 | %256
 x4 | x4 | x4 | x4 | x4 | x4 |] %262
V:4
 x4 | x4 |!8vb(! x!8vb)! x3 | x4 |!8vb(! x!8vb)! x3 | x4 |!8vb(! x!8vb)! x3 | x4 | %8
!8vb(! x!8vb)! x3 | x4 |!8vb(! x!8vb)! x3 | x4 |!8vb(! x!8vb)! x3 | x4 |!8vb(! x!8vb)! x3 | x4 | %16
 x4 | x4 | x4 | x4 | x4 | x4 | x4 | x4 | x4 | x4 | x4 | x4 | x4 | x4 | x4 | x4 || x4 | x4 | %34
!8vb(! x!8vb)! x3 | x4 |!8vb(! x!8vb)! x3 | x4 |!8vb(! x!8vb)! x3 | x4 | x4 | x4 | x4 | x4 | %44
 A,, z G,/G,/G,/ z/ | x4 | [D,A,]/[D,A,]/[D,A,]/ z/ [^C,A,]/[C,A,]/[C,A,]/ z/ | %47
 [C,A,]/[C,A,]/[C,A,]/ z/ [B,,D,]/[B,,D,]/[B,,D,]/ z/ | x4 | x4 | x4 | x4 | x4 | x4 | x4 | %55
 E,, z A,, z | x4 | E,, z A,, z | E,, z A,, z | x4 | x4 |!8vb(! x4 || x4 | x4!8vb)! | x4 | x4 | %66
 x4 | x4 | x4 | x4 ||[K:C] x4 | x4 | x4 | x4 | x4 | x4 | x4 | x4 | x4 | x4 | x4 | x4 | x4 | x4 | %84
 x4 | x4 | x4 | x4 | x4 | x4 | x4 | x4 | x4 | x4 | x4 | x4 | x4 | .[A,,E,]2 .[C,E,]2 | .D,2 .C,2 | %99
 .B,,2 .A,,2 | [G,,D,]2 !tenuto!E,2 | !tenuto!D,2 !tenuto!^C,2 | x4 | x4 | x4 | x4 || x4 | x4 | %108
 x4 | x4 | x4 | x4 | x4 | x4 | x4 | x4 | x4 | x4 | !tenuto!F,2 !tenuto!E,2 | x4 | x4 | x4 | x4 | %123
 x4 | x4 | x4 | x4 | x4 | x4 | x4 | x4 | x4 | x4 | !tenuto!A,,2 !tenuto!C,2 | %134
 !tenuto!D,2 !tenuto!C,2 | D,E, !tenuto!A,,2 | !tenuto!G,,2 !tenuto!E,2 | %137
 !tenuto!D,2 !tenuto!^C,2 | x4 | x4 | x4 | x4 ||[K:G] x4 | x4 |!8vb(! x!8vb)! x3 | x4 | %146
!8vb(! x!8vb)! x3 | x4 |!8vb(! x!8vb)! x3 | x4 |!8vb(! x!8vb)! x3 | x4 |!8vb(! x!8vb)! x3 | x4 | %154
!8vb(! x!8vb)! x3 | x4 |!8vb(! x!8vb)! x3 | x4 | x4 | x4 | x4 | x4 | x4 | x4 | x4 | x4 | x4 | x4 | %168
 x4 | x4 | x4 | x4 | x4 | x4 || x4 | x4 |!8vb(! x!8vb)! x3 | x4 |!8vb(! x!8vb)! x3 | x4 | %180
!8vb(! x!8vb)! x3 | x4 | x4 | x4 | x4 | x4 | A,, z G,/G,/G,/ z/ | x4 | %188
 [D,A,]/[D,A,]/[D,A,]/ z/ [^C,A,]/[C,A,]/[C,A,]/ z/ | %189
 [C,A,]/[C,A,]/[C,A,]/ z/ [B,,D,]/[B,,D,]/[B,,D,]/ z/ | x4 | x4 | x4 | x4 | x4 | x4 | x4 | %197
 E,, z A,, z | x4 | E,, z A,, z | .E, z !>!A,,2 | .E, z !>!A,,2 | x4 | x4 | x4 | x4 || x4 | x4 | %208
 x4 | x4 |!8vb(! x2!8vb)! x2 | x4 | x4 | x4 | x4 | x4 | x4 | x2!8vb(! x2!8vb)! | x4 | x4 | x4 | %221
 x4 | x2!8vb(! x2!8vb)! | x4 |!8vb(! x2!8vb)! x2 | x4 |!8vb(! x2!8vb)! x2 | x4 | x4 | x4 | x4 | %231
 x4 | x4 | x4 | .D,,2 .B,,2 | .A,,2 .^G,,2 | x4 | x4 | x4 | x2!8vb(! x2!8vb)! | x4 | x4 | x4 | x4 | %244
 x4 | x4 | x4 | x4 | x4 | x4 | x4 | x4 | x4 | x4 | x4 | x4 | x4 | x4 |!8vb(! x4 | x4 | x4!8vb)! | %261
 x4 |] %262

